;FLAVOR:UltiGCode
;TIME:9182
;MATERIAL:12063
;MATERIAL2:0
;NOZZLE_DIAMETER:0.4
;MINX:73.31
;MINY:73.31
;MINZ:0.3
;MAXX:149.69
;MAXY:149.69
;MAXZ:27.8
;Generated with Cura_SteamEngine 5.0.0
M82 ;absolute extrusion mode
G0 F3000 Y50 ;avoid prime blob
G92 E0
G92 E0
G10
;LAYER_COUNT:276
;LAYER:0
M107
G0 F3600 X74.299 Y74.214 Z0.3
G0 X73.31 Y77.141
;TYPE:SKIRT
G11
G1 F1800 X73.319 Y76.476 E0.07981
G1 X73.366 Y75.972 E0.14055
G1 X73.492 Y75.483 E0.20115
G1 X73.693 Y75.019 E0.26183
G1 X73.964 Y74.592 E0.32251
G1 X74.299 Y74.214 E0.38312
G1 X74.69 Y73.893 E0.44383
G1 X75.127 Y73.638 E0.50455
G1 X75.598 Y73.454 E0.56523
G1 X76.092 Y73.348 E0.62586
G1 X76.75 Y73.311 E0.70494
G1 X145.829 Y73.31 E8.99442
G1 X146.527 Y73.32 E9.07819
G1 X147.03 Y73.367 E9.13881
G1 X147.52 Y73.493 E9.19952
G1 X147.984 Y73.695 E9.26025
G1 X148.41 Y73.967 E9.3209
G1 X148.788 Y74.302 E9.38151
G1 X149.108 Y74.693 E9.44214
G1 X149.363 Y75.13 E9.50286
G1 X149.546 Y75.601 E9.5635
G1 X149.653 Y76.095 E9.62415
G1 X149.689 Y76.75 E9.70287
G1 X149.69 Y100.812 E12.59031
G1 X149.679 Y101.54 E12.67768
G1 X149.667 Y101.764 E12.7046
G1 X149.425 Y104.611 E13.04747
G1 X149.269 Y107.36 E13.37788
G1 X149.192 Y110.108 E13.70777
G1 X149.192 Y112.828 E14.03417
G1 X149.271 Y115.582 E14.36479
G1 X149.426 Y118.324 E14.69435
G1 X149.556 Y119.844 E14.87742
G1 X149.557 Y119.942 E14.88918
G1 X149.679 Y121.413 E15.0663
G1 X149.69 Y121.84 E15.11756
G1 X149.69 Y145.798 E17.99252
G1 X149.68 Y146.525 E18.07977
G1 X149.633 Y147.028 E18.14039
G1 X149.507 Y147.518 E18.2011
G1 X149.306 Y147.982 E18.26178
G1 X149.034 Y148.408 E18.32244
G1 X148.699 Y148.787 E18.38314
G1 X148.308 Y149.107 E18.44377
G1 X147.872 Y149.362 E18.50438
G1 X147.401 Y149.546 E18.56506
G1 X146.906 Y149.652 E18.6258
G1 X146.25 Y149.689 E18.70465
G1 X77.176 Y149.69 E26.99353
G1 X76.478 Y149.681 E27.0773
G1 X75.974 Y149.634 E27.13804
G1 X75.484 Y149.509 E27.19872
G1 X75.02 Y149.308 E27.2594
G1 X74.594 Y149.037 E27.31999
G1 X74.215 Y148.702 E27.38069
G1 X73.894 Y148.311 E27.44139
G1 X73.639 Y147.875 E27.50201
G1 X73.455 Y147.404 E27.56269
G1 X73.348 Y146.91 E27.62334
G1 X73.311 Y146.234 E27.70458
G1 X73.31 Y122.167 E30.59262
G1 X73.321 Y121.458 E30.67771
G1 X73.333 Y121.236 E30.70439
G1 X73.575 Y118.389 E31.04726
G1 X73.732 Y115.619 E31.3802
G1 X73.808 Y112.885 E31.7084
G1 X73.808 Y110.172 E32.03396
G1 X73.729 Y107.41 E32.36554
G1 X73.574 Y104.673 E32.6945
G1 X73.444 Y103.156 E32.87721
G1 X73.443 Y103.058 E32.88897
G1 X73.32 Y101.569 E33.06826
G1 X73.31 Y101.16 E33.11736
G1 X73.31 Y77.141 E35.99964
G10
;MESH:Base.stl
G0 F3600 X78.375 Y79.86
G0 X78.184 Y80.929
G11
G0 X78.593 Y80.941
;TYPE:WALL-OUTER
G1 F1800 X78.755 Y80.39 E36.06855
G1 X79.027 Y79.874 E36.13855
G1 X79.395 Y79.419 E36.20877
G1 X79.829 Y79.059 E36.27644
G1 X80.337 Y78.779 E36.34605
G1 X80.884 Y78.605 E36.41493
G1 X81.463 Y78.541 E36.48483
G1 X82.043 Y78.592 E36.5547
G1 X82.593 Y78.751 E36.6234
G1 X83.113 Y79.023 E36.69382
G1 X83.145 Y79.044 E36.69841
G1 X83.567 Y79.383 E36.76337
G1 X83.943 Y79.83 E36.83346
G1 X84.221 Y80.338 E36.90295
G1 X84.395 Y80.885 E36.97184
G1 X84.458 Y81.461 E37.04137
G1 X84.408 Y82.045 E37.1117
G1 X84.249 Y82.593 E37.18018
G1 X83.978 Y83.113 E37.25054
G1 X83.619 Y83.565 E37.31981
G1 X83.161 Y83.95 E37.39161
G1 X82.647 Y84.228 E37.46173
G1 X82.162 Y84.38 E37.52272
G1 X81.52 Y84.46 E37.60036
G1 X80.941 Y84.407 E37.67013
G1 X80.388 Y84.244 E37.73931
G1 X79.874 Y83.973 E37.80904
G1 X79.423 Y83.609 E37.87859
G1 X79.049 Y83.161 E37.94862
G1 X78.772 Y82.647 E38.01868
G1 X78.601 Y82.101 E38.08734
G1 X78.54 Y81.522 E38.15721
G1 X78.593 Y80.941 E38.22722
G0 F3600 X78.649 Y80.75
G10
G0 X78.257 Y80.632
G0 X78.191 Y81.527
G0 X78.462 Y82.809
G0 X79.18 Y83.86
G0 X80.242 Y84.564
G0 X81.527 Y84.809
G0 X83.4 Y84.486
G0 X89.366 Y90.357
G0 X89.232 Y91.563
G11
G0 X89.642 Y91.532
G1 F1800 X89.713 Y91.019 E38.28936
G1 X89.979 Y90.434 E38.36648
G1 X90.39 Y90.01 E38.43734
G1 X90.898 Y89.742 E38.50626
G1 X91.468 Y89.642 E38.57571
G1 X92.043 Y89.723 E38.64539
G1 X92.559 Y89.973 E38.71419
G1 X92.986 Y90.384 E38.78531
G1 X93.258 Y90.898 E38.8551
G1 X93.358 Y91.468 E38.92454
G1 X93.36 Y91.49 E38.92719
G1 X93.28 Y92.03 E38.9927
G1 X93.021 Y92.566 E39.06414
G1 X92.61 Y92.99 E39.135
G1 X92.102 Y93.258 E39.20392
G1 X91.532 Y93.358 E39.27336
G1 X90.957 Y93.277 E39.34305
G1 X90.434 Y93.021 E39.41292
G1 X90.013 Y92.616 E39.48302
G1 X89.742 Y92.102 E39.55275
G1 X89.642 Y91.532 E39.62219
G0 F3600 X89.669 Y91.334
G10
G0 X89.244 Y91.301
G0 X89.422 Y92.242
G0 X90.14 Y93.236
G0 X91.376 Y93.932
G0 X92.743 Y100.69
G0 X94.032 Y100.88
G11
G0 X94.032 Y101.291
G1 F1800 X94.191 Y101.405 E39.64567
G1 X94.209 Y102.177 E39.73834
G1 X94.209 Y121.516 E42.05902
G1 X94.11 Y121.684 E42.08242
G1 X93.341 Y121.71 E42.17475
G1 X76.711 Y121.711 E44.17035
G1 X76.711 Y146.289 E47.11971
G1 X127.241 Y146.29 E53.18331
G1 X146.29 Y146.29 E55.46919
G1 X146.29 Y128.455 E57.60939
G1 X146.29 Y121.71 E58.41879
G1 X128.988 Y121.71 E60.49503
G1 X128.81 Y121.602 E60.52001
G1 X128.789 Y120.803 E60.61593
G1 X128.789 Y101.483 E62.93433
G1 X128.888 Y101.316 E62.95762
G1 X129.658 Y101.29 E63.05008
G1 X146.29 Y101.29 E65.04592
G1 X146.29 Y76.71 E67.99552
G1 X76.711 Y76.711 E76.345
G1 X76.711 Y101.289 E79.29436
G1 X94.032 Y101.291 E81.37288
G0 F3600 X94.191 Y101.405
G0 X94.191 Y101.41
G10
G0 X94.486 Y101.116
G0 X94.439 Y111.442
G0 X105.46 Y111.502
G11
G0 X106.04 Y111.482
G1 F1800 X106.144 Y110.433 E81.49937
G1 X106.447 Y109.431 E81.62499
G1 X106.462 Y109.395 E81.62967
G1 X106.961 Y108.466 E81.75622
G1 X107.635 Y107.643 E81.88387
G1 X108.45 Y106.972 E82.01055
G1 X108.466 Y106.962 E82.01281
G1 X109.394 Y106.464 E82.1392
G1 X110.293 Y106.185 E82.25215
G1 X110.435 Y106.146 E82.26982
G1 X111.485 Y106.041 E82.39645
G1 X111.505 Y106.041 E82.39885
G1 X112.55 Y106.143 E82.52485
G1 X113.328 Y106.375 E82.62227
G1 X113.587 Y106.457 E82.65487
G1 X114.519 Y106.953 E82.78156
G1 X115.332 Y107.613 E82.90722
G1 X115.36 Y107.641 E82.91197
G1 X116.021 Y108.441 E83.0365
G1 X116.043 Y108.474 E83.04126
G1 X116.538 Y109.399 E83.16716
G1 X116.847 Y110.397 E83.29253
G1 X116.854 Y110.435 E83.29716
G1 X116.959 Y111.483 E83.42355
G1 X116.959 Y111.503 E83.42595
G1 X116.857 Y112.553 E83.55255
G1 X116.558 Y113.551 E83.67756
G1 X116.543 Y113.587 E83.68224
G1 X116.046 Y114.52 E83.8091
G1 X116.035 Y114.536 E83.81143
G1 X115.375 Y115.345 E83.93672
G1 X114.55 Y116.029 E84.06532
G1 X114.517 Y116.051 E84.07008
G1 X113.593 Y116.543 E84.1957
G1 X112.588 Y116.851 E84.32183
G1 X112.549 Y116.859 E84.32661
G1 X111.51 Y116.96 E84.45188
G1 X111.48 Y116.96 E84.45548
G1 X110.435 Y116.856 E84.5815
G1 X109.699 Y116.635 E84.67371
G1 X109.392 Y116.538 E84.71235
G1 X108.467 Y116.039 E84.83847
G1 X107.651 Y115.373 E84.96486
G1 X107.628 Y115.349 E84.96885
G1 X106.959 Y114.534 E85.09538
G1 X106.463 Y113.605 E85.22176
G1 X106.448 Y113.569 E85.22644
G1 X106.143 Y112.564 E85.35247
G1 X106.04 Y111.522 E85.47812
G1 X106.04 Y111.482 E85.48292
G0 F3600 X106.059 Y111.283
G10
G0 X105.653 Y111.243
G0 X105.892 Y113.738
G0 X92.134 Y129.149
G0 X90.758 Y129.422
G0 X89.803 Y130.101
G0 X89.325 Y130.86
G11
G0 X89.723 Y130.957
G1 F1800 X89.979 Y130.434 E85.55279
G1 X90.39 Y130.01 E85.62365
G1 X90.898 Y129.742 E85.69258
G1 X91.468 Y129.642 E85.76202
G1 X92.043 Y129.723 E85.8317
G1 X92.559 Y129.973 E85.90051
G1 X92.986 Y130.383 E85.97154
G1 X93.258 Y130.898 E86.04143
G1 X93.358 Y131.468 E86.11088
G1 X93.28 Y132.03 E86.17896
G1 X93.021 Y132.566 E86.2504
G1 X92.61 Y132.99 E86.32126
G1 X92.102 Y133.258 E86.39018
G1 X91.532 Y133.358 E86.45963
G1 X90.972 Y133.28 E86.52748
G1 X90.434 Y133.021 E86.59913
G1 X90.013 Y132.616 E86.66923
G1 X89.742 Y132.102 E86.73896
G1 X89.702 Y131.909 E86.76261
G1 X89.642 Y131.468 E86.81602
G1 X89.723 Y130.957 E86.8781
G0 F3600 X89.81 Y130.778
G10
G0 X89.417 Y130.614
G0 X89.068 Y131.376
G0 X82.757 Y138.194
G0 X81.454 Y138.192
G0 X80.175 Y138.47
G0 X79.14 Y139.18
G0 X78.576 Y139.979
G0 X78.184 Y140.928
G11
G0 X78.593 Y140.94
G1 F1800 X78.755 Y140.39 E86.94691
G1 X79.027 Y139.874 E87.0169
G1 X79.395 Y139.419 E87.08713
G1 X79.829 Y139.058 E87.15487
G1 X80.338 Y138.779 E87.22452
G1 X80.884 Y138.606 E87.29325
G1 X81.463 Y138.542 E87.36316
G1 X82.043 Y138.592 E87.43301
G1 X82.593 Y138.751 E87.50172
G1 X83.113 Y139.022 E87.57208
G1 X83.567 Y139.383 E87.64169
G1 X83.943 Y139.83 E87.71178
G1 X84.221 Y140.338 E87.78127
G1 X84.389 Y140.868 E87.84799
G1 X84.458 Y141.461 E87.91963
G1 X84.408 Y142.044 E87.98985
G1 X84.249 Y142.593 E88.05843
G1 X83.978 Y143.113 E88.1288
G1 X83.619 Y143.565 E88.19806
G1 X83.161 Y143.95 E88.26986
G1 X82.647 Y144.228 E88.33999
G1 X82.101 Y144.399 E88.40864
G1 X81.52 Y144.46 E88.47875
G1 X80.941 Y144.407 E88.54852
G1 X80.903 Y144.399 E88.55318
G1 X80.388 Y144.244 E88.61772
G1 X79.874 Y143.973 E88.68744
G1 X79.423 Y143.609 E88.75699
G1 X79.049 Y143.161 E88.82702
G1 X78.772 Y142.647 E88.89709
G1 X78.601 Y142.1 E88.96586
G1 X78.54 Y141.522 E89.03561
G1 X78.593 Y140.94 E89.10574
G0 F3600 X78.649 Y140.749
G10
G0 X78.257 Y140.63
G0 X78.804 Y139.59
G0 X79.624 Y138.769
G0 X80.922 Y138.248
G0 X82.103 Y138.243
G0 X83.391 Y138.792
G0 X84.732 Y140.062
G0 X129.149 Y132.134
G11
G0 X129.642 Y131.532
G1 F1800 X129.64 Y131.486 E89.11126
G1 X129.726 Y130.94 E89.17759
G1 X129.979 Y130.434 E89.24548
G1 X130.39 Y130.01 E89.31634
G1 X130.898 Y129.742 E89.38526
G1 X131.468 Y129.642 E89.45471
G1 X132.043 Y129.723 E89.52439
G1 X132.559 Y129.973 E89.59319
G1 X132.986 Y130.384 E89.66431
G1 X133.258 Y130.898 E89.7341
G1 X133.358 Y131.468 E89.80354
G1 X133.28 Y132.03 E89.87163
G1 X133.021 Y132.566 E89.94306
G1 X132.61 Y132.99 E90.01392
G1 X132.102 Y133.258 E90.08285
G1 X131.532 Y133.358 E90.15229
G1 X130.957 Y133.277 E90.22197
G1 X130.434 Y133.021 E90.29185
G1 X130.013 Y132.616 E90.36195
G1 X129.742 Y132.102 E90.43168
G1 X129.642 Y131.532 E90.50112
G0 F3600 X129.64 Y131.486
G0 X129.663 Y131.334
G10
G0 X129.244 Y131.301
G0 X129.422 Y132.242
G0 X130.183 Y133.279
G0 X132.047 Y133.864
G0 X138.031 Y140.786
G11
G0 X138.54 Y141.522
G1 F1800 X138.593 Y140.94 E90.57125
G1 X138.755 Y140.39 E90.64005
G1 X139.027 Y139.874 E90.71005
G1 X139.395 Y139.419 E90.78027
G1 X139.829 Y139.058 E90.84801
G1 X140.338 Y138.779 E90.91767
G1 X140.883 Y138.606 E90.98628
G1 X141.463 Y138.542 E91.05631
G1 X142.042 Y138.592 E91.12604
G1 X142.593 Y138.751 E91.19486
G1 X143.113 Y139.022 E91.26523
G1 X143.567 Y139.383 E91.33483
G1 X143.943 Y139.83 E91.40493
G1 X144.221 Y140.338 E91.47442
G1 X144.394 Y140.884 E91.54315
G1 X144.458 Y141.461 E91.61281
G1 X144.46 Y141.482 E91.61534
G1 X144.406 Y142.06 E91.685
G1 X144.249 Y142.593 E91.75168
G1 X143.978 Y143.113 E91.82205
G1 X143.619 Y143.565 E91.89131
G1 X143.161 Y143.95 E91.96311
G1 X142.647 Y144.228 E92.03324
G1 X142.1 Y144.399 E92.10201
G1 X141.52 Y144.46 E92.17199
G1 X140.94 Y144.407 E92.24188
G1 X140.388 Y144.244 E92.31095
G1 X139.874 Y143.973 E92.38068
G1 X139.423 Y143.609 E92.45023
G1 X139.049 Y143.16 E92.52035
G1 X138.772 Y142.647 E92.59031
G1 X138.601 Y142.1 E92.65908
G1 X138.54 Y141.522 E92.72883
G0 F3600 X138.558 Y141.323
G10
G0 X138.149 Y141.283
G0 X138.515 Y139.6
G0 X130.635 Y93.775
G0 X129.721 Y92.817
G0 X129.232 Y91.563
G11
G0 X129.642 Y91.532
G1 F1800 X129.723 Y90.957 E92.79851
G1 X129.979 Y90.434 E92.86838
G1 X130.39 Y90.01 E92.93925
G1 X130.898 Y89.742 E93.00817
G1 X131.468 Y89.642 E93.07761
G1 X131.981 Y89.713 E93.13976
G1 X132.559 Y89.973 E93.21581
G1 X132.986 Y90.383 E93.28685
G1 X133.258 Y90.898 E93.35674
G1 X133.358 Y91.468 E93.42618
G1 X133.28 Y92.03 E93.49427
G1 X133.021 Y92.566 E93.56571
G1 X132.61 Y92.99 E93.63657
G1 X132.102 Y93.258 E93.70549
G1 X131.532 Y93.358 E93.77494
G1 X130.957 Y93.277 E93.84462
G1 X130.433 Y93.021 E93.9146
G1 X130.013 Y92.616 E93.98461
G1 X129.742 Y92.102 E94.05434
G1 X129.642 Y91.532 E94.12379
G0 F3600 X129.669 Y91.334
G10
G0 X129.244 Y91.301
G0 X129.954 Y89.921
G0 X132.072 Y89.139
G0 X138.201 Y82.781
G0 X138.133 Y81.561
G11
G0 X138.54 Y81.522
G1 F1800 X138.593 Y80.941 E94.1938
G1 X138.755 Y80.39 E94.26272
G1 X139.027 Y79.874 E94.33271
G1 X139.395 Y79.419 E94.40293
G1 X139.829 Y79.058 E94.47068
G1 X140.338 Y78.779 E94.54033
G1 X140.883 Y78.605 E94.60898
G1 X141.463 Y78.541 E94.679
G1 X142.042 Y78.592 E94.74875
G1 X142.593 Y78.751 E94.81757
G1 X143.113 Y79.022 E94.88794
G1 X143.567 Y79.383 E94.95754
G1 X143.943 Y79.83 E95.02763
G1 X144.221 Y80.338 E95.09713
G1 X144.394 Y80.885 E95.16597
G1 X144.458 Y81.461 E95.23552
G1 X144.46 Y81.482 E95.23805
G1 X144.406 Y82.061 E95.30783
G1 X144.249 Y82.593 E95.37439
G1 X143.978 Y83.113 E95.44476
G1 X143.619 Y83.565 E95.51402
G1 X143.161 Y83.95 E95.58582
G1 X142.647 Y84.228 E95.65594
G1 X142.1 Y84.399 E95.72472
G1 X141.52 Y84.46 E95.7947
G1 X140.94 Y84.407 E95.86459
G1 X140.388 Y84.244 E95.93366
G1 X139.874 Y83.973 E96.00339
G1 X139.423 Y83.609 E96.07293
G1 X139.049 Y83.16 E96.14306
G1 X138.772 Y82.647 E96.21302
G1 X138.62 Y82.162 E96.27401
G1 X138.54 Y81.522 E96.35141
G0 F3600 X138.558 Y81.323
G0 X138.142 Y81.561
;TYPE:WALL-INNER
G1 F1800 X138.195 Y80.902 E96.43074
G1 X138.372 Y80.275 E96.50892
G1 X138.675 Y79.685 E96.58851
G1 X139.085 Y79.166 E96.66788
G1 X139.575 Y78.748 E96.74517
G1 X140.148 Y78.427 E96.82399
G1 X140.764 Y78.223 E96.90185
G1 X141.422 Y78.143 E96.9814
G1 X142.08 Y78.194 E97.06059
G1 X142.706 Y78.367 E97.13853
G1 X143.301 Y78.668 E97.21854
G1 X143.818 Y79.071 E97.29721
G1 X144.251 Y79.575 E97.37694
G1 X144.573 Y80.148 E97.45581
G1 X144.776 Y80.767 E97.53399
G1 X144.856 Y81.419 E97.61281
G1 X144.86 Y81.482 E97.62039
G1 X144.806 Y82.083 E97.6928
G1 X144.633 Y82.707 E97.7705
G1 X144.331 Y83.301 E97.85047
G1 X143.931 Y83.816 E97.92872
G1 X143.417 Y84.258 E98.01007
G1 X142.835 Y84.581 E98.08994
G1 X142.216 Y84.781 E98.168
G1 X141.559 Y84.858 E98.24738
G1 X140.901 Y84.805 E98.3266
G1 X140.272 Y84.627 E98.40504
G1 X139.685 Y84.325 E98.48426
G1 X139.264 Y83.996 E98.54837
G1 X138.74 Y83.414 E98.64235
G1 X138.419 Y82.835 E98.72179
G1 X138.238 Y82.279 E98.79196
G1 X138.142 Y81.561 E98.87889
G10
G0 F3600 X138.133 Y81.561
G0 X138.201 Y82.781
G0 X132.82 Y89.454
G0 X131.478 Y89.291
G0 X130.145 Y89.758
G0 X129.463 Y90.681
G0 X129.235 Y91.593
G11
G0 X129.247 Y91.594
G1 F1800 X129.328 Y90.895 E98.96333
G1 X129.623 Y90.252 E99.04822
G1 X130.108 Y89.727 E99.13399
G1 X130.718 Y89.385 E99.21791
G1 X131.406 Y89.247 E99.30211
G1 X132.043 Y89.318 E99.37903
G1 X132.578 Y89.534 E99.44826
G1 X132.891 Y89.725 E99.49226
G1 X133.3 Y90.133 E99.56159
G1 X133.615 Y90.718 E99.64132
G1 X133.753 Y91.406 E99.72552
G1 X133.675 Y92.092 E99.80837
G1 X133.378 Y92.746 E99.89457
G1 X132.892 Y93.273 E99.98059
G1 X132.282 Y93.615 E100.06451
G1 X131.594 Y93.753 E100.14872
G1 X130.895 Y93.672 E100.23316
G1 X130.251 Y93.377 E100.31816
G1 X129.731 Y92.9 E100.40284
G1 X129.385 Y92.282 E100.48783
G1 X129.247 Y91.594 E100.57203
G10
G0 F3600 X129.235 Y91.593
G0 X113.717 Y105.886
G0 X111.456 Y105.692
G0 X110.376 Y105.796
G0 X109.22 Y106.16
G0 X108.193 Y106.732
G0 X107.373 Y107.413
G0 X106.68 Y108.248
G0 X106.128 Y109.285
G0 X105.857 Y110.223
G0 X105.633 Y111.561
G11
G0 X105.642 Y111.561
G1 F1800 X105.642 Y111.443 E100.58619
G1 X105.743 Y110.414 E100.71027
G1 X105.766 Y110.298 E100.72446
G1 X106.064 Y109.315 E100.84772
G1 X106.11 Y109.206 E100.86192
G1 X106.599 Y108.294 E100.9861
G1 X106.663 Y108.197 E101.00004
G1 X107.314 Y107.402 E101.12335
G1 X107.398 Y107.319 E101.13752
G1 X108.213 Y106.65 E101.26405
G1 X108.262 Y106.618 E101.27107
G1 X109.23 Y106.099 E101.40287
G1 X110.175 Y105.803 E101.5217
G1 X110.395 Y105.748 E101.54892
G1 X111.454 Y105.641 E101.67664
G1 X111.543 Y105.643 E101.68733
G1 X112.57 Y105.742 E101.81114
G1 X113.443 Y105.992 E101.92011
G1 X113.775 Y106.104 E101.96215
G1 X114.714 Y106.603 E102.08976
G1 X114.788 Y106.655 E102.10061
G1 X115.599 Y107.316 E102.22616
G1 X115.668 Y107.386 E102.23795
G1 X116.329 Y108.186 E102.36248
G1 X116.395 Y108.285 E102.37676
G1 X116.882 Y109.193 E102.50041
G1 X116.927 Y109.3 E102.51433
G1 X117.229 Y110.279 E102.63728
G1 X117.252 Y110.395 E102.65147
G1 X117.356 Y111.422 E102.77534
G1 X117.357 Y111.541 E102.78962
G1 X117.258 Y112.572 E102.91391
