;FLAVOR:UltiGCode
;TIME:10881
;MATERIAL:13288
;MATERIAL2:0
;NOZZLE_DIAMETER:0.4
;MINX:62.83
;MINY:82.837
;MINZ:0.3
;MAXX:147.239
;MAXY:167.248
;MAXZ:12.6
;Generated with Cura_SteamEngine 5.0.0
M82 ;absolute extrusion mode
G0 F3000 Y50 ;avoid prime blob
G92 E0
G92 E0
G10
;LAYER_COUNT:124
;LAYER:0
M107
G0 F3600 X67.585 Y86.796 Z0.3
G0 X66.205 Y90.044
;TYPE:SKIRT
G11
G1 F1800 X66.214 Y89.379 E0.07981
G1 X66.261 Y88.875 E0.14055
G1 X66.387 Y88.386 E0.20115
G1 X66.588 Y87.922 E0.26183
G1 X66.859 Y87.495 E0.32251
G1 X67.194 Y87.117 E0.38312
G1 X67.585 Y86.796 E0.44383
G1 X68.022 Y86.541 E0.50455
G1 X68.493 Y86.357 E0.56523
G1 X68.987 Y86.251 E0.62586
G1 X69.645 Y86.214 E0.70494
G1 X140.002 Y86.213 E9.14778
G1 X140.7 Y86.223 E9.23155
G1 X141.203 Y86.27 E9.29217
G1 X141.693 Y86.396 E9.35288
G1 X142.157 Y86.598 E9.41361
G1 X142.583 Y86.87 E9.47426
G1 X142.961 Y87.205 E9.53487
G1 X143.281 Y87.596 E9.5955
G1 X143.536 Y88.033 E9.65622
G1 X143.719 Y88.504 E9.71686
G1 X143.826 Y88.998 E9.77751
G1 X143.862 Y89.653 E9.85623
G1 X143.863 Y159.976 E18.29499
G1 X143.854 Y160.703 E18.38224
G1 X143.808 Y161.206 E18.44285
G1 X143.683 Y161.696 E18.50353
G1 X143.482 Y162.16 E18.56421
G1 X143.211 Y162.587 E18.6249
G1 X142.876 Y162.966 E18.6856
G1 X142.486 Y163.287 E18.74621
G1 X142.05 Y163.543 E18.80688
G1 X141.579 Y163.726 E18.86752
G1 X141.085 Y163.834 E18.9282
G1 X140.423 Y163.871 E19.00776
G1 X70.071 Y163.872 E27.45
G1 X69.373 Y163.863 E27.53377
G1 X68.869 Y163.816 E27.59451
G1 X68.379 Y163.691 E27.6552
G1 X67.915 Y163.49 E27.71588
G1 X67.489 Y163.219 E27.77646
G1 X67.11 Y162.884 E27.83716
G1 X66.789 Y162.493 E27.89787
G1 X66.534 Y162.057 E27.95848
G1 X66.35 Y161.586 E28.01916
G1 X66.243 Y161.092 E28.07982
G1 X66.206 Y160.416 E28.16106
G1 X66.205 Y90.044 E36.6057
G10
;MESH:Reflector_top.stl
G0 F3600 X68.74 Y90.044
G0 X69.835 Y90.044
G11
G0 X69.605 Y89.613
;TYPE:WALL-OUTER
G1 F1800 X69.605 Y160.472 E45.10878
G1 X140.463 Y160.472 E53.61174
G1 X140.463 Y91.569 E61.8801
G1 X140.463 Y89.613 E62.11482
G1 X69.605 Y89.613 E70.61778
G0 F3600 X69.605 Y89.813
G10
G0 X69.985 Y89.993
G0 X69.835 Y95.134
G0 X71.495 Y95.069
G11
G0 X72.077 Y95.091
G1 F1800 X72.125 Y94.508 E70.68797
G1 X72.281 Y93.958 E70.75658
G1 X72.552 Y93.437 E70.82705
G1 X72.912 Y92.983 E70.89658
G1 X73.371 Y92.593 E70.96886
G1 X73.864 Y92.327 E71.03608
G1 X74.408 Y92.151 E71.10469
G1 X75.012 Y92.083 E71.17763
G1 X75.593 Y92.135 E71.24763
G1 X76.12 Y92.291 E71.31358
G1 X76.64 Y92.561 E71.38389
G1 X77.093 Y92.921 E71.45332
G1 X77.485 Y93.384 E71.52612
G1 X77.762 Y93.894 E71.59577
G1 X77.933 Y94.442 E71.66465
G1 X77.994 Y95.02 E71.7344
G1 X77.941 Y95.604 E71.80477
G1 X77.779 Y96.152 E71.87334
G1 X77.507 Y96.667 E71.94323
G1 X77.157 Y97.1 E72.01004
G1 X76.713 Y97.479 E72.08009
G1 X76.206 Y97.757 E72.14948
G1 X75.659 Y97.934 E72.21847
G1 X75.078 Y97.999 E72.28863
G1 X74.5 Y97.952 E72.35822
G1 X73.949 Y97.794 E72.427
G1 X73.428 Y97.524 E72.49742
G1 X72.974 Y97.164 E72.56695
G1 X72.598 Y96.722 E72.63658
G1 X72.318 Y96.213 E72.70629
G1 X72.143 Y95.666 E72.77521
G1 X72.077 Y95.091 E72.84466
G0 F3600 X72.093 Y94.892
G10
G0 X71.684 Y94.854
G0 X71.785 Y95.689
G0 X72.349 Y96.968
G0 X73.194 Y97.797
G0 X74.496 Y98.301
G0 X76.348 Y98.325
G0 X82.612 Y104.786
G11
G0 X83.208 Y105.384
G1 F1800 X83.193 Y104.801 E72.91465
G1 X83.358 Y104.243 E72.98447
G1 X83.684 Y103.767 E73.0537
G1 X84.159 Y103.402 E73.12559
G1 X84.713 Y103.212 E73.19587
G1 X85.293 Y103.203 E73.26548
G1 X85.851 Y103.372 E73.33544
G1 X86.327 Y103.711 E73.40557
G1 X86.673 Y104.165 E73.47407
G1 X86.865 Y104.718 E73.54431
G1 X86.874 Y105.301 E73.61428
G1 X86.702 Y105.86 E73.68446
G1 X86.37 Y106.334 E73.75391
G1 X85.918 Y106.674 E73.82178
G1 X85.376 Y106.868 E73.89086
G1 X84.794 Y106.884 E73.96073
G1 X84.243 Y106.722 E74.02965
G1 X83.758 Y106.392 E74.10004
G1 X83.394 Y105.914 E74.17214
G1 X83.208 Y105.384 E74.23954
G0 F3600 X83.203 Y105.184
G10
G0 X82.777 Y105.221
G0 X83.244 Y106.69
G0 X84.482 Y111.287
G0 X82.149 Y115.572
G0 X80.736 Y120.278
G0 X80.112 Y124.984
G11
G0 X80.518 Y125.024
G1 F1800 X80.985 Y120.277 E74.81193
G1 X80.993 Y120.238 E74.81671
G1 X82.375 Y115.681 E75.38814
G1 X82.39 Y115.645 E75.39282
G1 X84.645 Y111.43 E75.96646
G1 X87.321 Y108.164 E76.47313
G1 X87.685 Y107.72 E76.54203
G1 X88.166 Y107.322 E76.61695
G1 X91.414 Y104.656 E77.12119
G1 X95.636 Y102.399 E77.69568
G1 X95.672 Y102.384 E77.70036
G1 X100.252 Y100.995 E78.27468
G1 X105.014 Y100.526 E78.84888
G1 X105.054 Y100.526 E78.85368
G1 X109.799 Y100.993 E79.42584
G1 X109.838 Y101.001 E79.43061
G1 X114.417 Y102.39 E80.00482
G1 X114.435 Y102.398 E80.00718
G1 X118.647 Y104.653 E80.5805
G1 X119.536 Y105.38 E80.71831
G1 X122.353 Y107.691 E81.15555
G1 X122.777 Y108.202 E81.23523
G1 X125.408 Y111.407 E81.73282
G1 X125.43 Y111.439 E81.73748
G1 X127.685 Y115.663 E82.31207
G1 X127.692 Y115.681 E82.31438
G1 X129.075 Y120.236 E82.88562
G1 X129.083 Y120.275 E82.8904
G1 X129.551 Y125.04 E83.46495
G1 X129.083 Y129.809 E84.03998
G1 X129.075 Y129.848 E84.04476
G1 X127.693 Y134.404 E84.61608
G1 X127.678 Y134.44 E84.62076
G1 X125.424 Y138.654 E85.19423
G1 X124.718 Y139.517 E85.32803
G1 X122.385 Y142.362 E85.76954
G1 X121.877 Y142.784 E85.84879
G1 X118.653 Y145.429 E86.34921
G1 X114.432 Y147.685 E86.92354
G1 X114.396 Y147.7 E86.92822
G1 X109.816 Y149.09 E87.50257
G1 X105.054 Y149.559 E88.07677
G1 X105.014 Y149.559 E88.08157
G1 X100.269 Y149.092 E88.65373
G1 X100.23 Y149.084 E88.6585
G1 X95.669 Y147.701 E89.23043
G1 X95.633 Y147.686 E89.23511
G1 X91.422 Y145.431 E89.80832
G1 X90.567 Y144.733 E89.94077
G1 X87.711 Y142.391 E90.38399
G1 X87.289 Y141.881 E90.46342
G1 X84.646 Y138.659 E90.9635
G1 X82.383 Y134.422 E91.53992
G1 X82.376 Y134.404 E91.54224
G1 X80.987 Y129.823 E92.11667
G1 X80.518 Y125.064 E92.69052
G1 X80.518 Y125.024 E92.69532
G0 F3600 X80.537 Y124.825
G10
G0 X80.131 Y124.785
G0 X80.636 Y129.868
G0 X82.081 Y134.601
G0 X83.114 Y137.023
G0 X83.332 Y143.295
G0 X82.784 Y144.778
G11
G0 X83.193 Y144.801
G1 F1800 X83.357 Y144.246 E92.76476
G1 X83.684 Y143.767 E92.83436
G1 X84.159 Y143.402 E92.90625
G1 X84.713 Y143.212 E92.97653
G1 X85.293 Y143.203 E93.04614
G1 X85.828 Y143.363 E93.11315
G1 X86.31 Y143.692 E93.18318
G1 X86.674 Y144.167 E93.25499
G1 X86.865 Y144.719 E93.32508
G1 X86.875 Y145.302 E93.39505
G1 X86.703 Y145.86 E93.46512
G1 X86.37 Y146.334 E93.53463
G1 X85.915 Y146.677 E93.60301
G1 X85.375 Y146.868 E93.67174
G1 X84.794 Y146.883 E93.74149
G1 X84.243 Y146.723 E93.81034
G1 X83.758 Y146.392 E93.8808
G1 X83.403 Y145.927 E93.951
G1 X83.208 Y145.386 E94.02001
G1 X83.193 Y144.801 E94.09023
G0 F3600 X83.249 Y144.609
G10
G0 X82.834 Y144.513
G0 X82.826 Y146.062
G0 X76.931 Y152.058
G0 X75.602 Y151.786
G0 X74.387 Y151.793
G0 X73.108 Y152.358
G0 X72.279 Y153.202
G0 X71.716 Y154.501
G11
G0 X72.125 Y154.508
G1 F1800 X72.281 Y153.958 E94.15884
G1 X72.552 Y153.437 E94.22931
G1 X72.912 Y152.983 E94.29884
G1 X73.354 Y152.607 E94.36847
G1 X73.862 Y152.328 E94.43802
G1 X74.408 Y152.151 E94.5069
G1 X75.012 Y152.083 E94.57984
G1 X75.593 Y152.135 E94.64984
G1 X76.12 Y152.291 E94.71579
G1 X76.661 Y152.572 E94.78894
G1 X77.091 Y152.919 E94.85525
G1 X77.47 Y153.365 E94.92548
G1 X77.761 Y153.893 E94.99783
G1 X77.933 Y154.442 E95.06687
G1 X77.994 Y155.02 E95.13661
G1 X77.941 Y155.604 E95.20698
G1 X77.779 Y156.152 E95.27555
G1 X77.507 Y156.667 E95.34544
G1 X77.142 Y157.119 E95.41516
G1 X76.712 Y157.48 E95.48253
G1 X76.206 Y157.758 E95.55181
G1 X75.659 Y157.934 E95.62077
G1 X75.078 Y158 E95.69094
G1 X74.5 Y157.952 E95.76053
G1 X73.949 Y157.794 E95.82932
G1 X73.428 Y157.525 E95.89968
G1 X72.974 Y157.164 E95.96928
G1 X72.598 Y156.722 E96.03892
G1 X72.318 Y156.213 E96.10863
G1 X72.143 Y155.666 E96.17755
G1 X72.077 Y155.091 E96.247
G1 X72.125 Y154.508 E96.3172
G0 F3600 X72.179 Y154.316
G10
G0 X71.785 Y154.2
G0 X72.325 Y153.156
G0 X73.15 Y152.317
G0 X74.445 Y151.793
G0 X75.654 Y151.786
G0 X76.939 Y152.342
G0 X78.272 Y153.615
G0 X122.657 Y145.57
G0 X122.784 Y144.778
G11
G0 X123.193 Y144.801
G1 F1800 X123.357 Y144.246 E96.38665
G1 X123.684 Y143.767 E96.45624
G1 X124.167 Y143.399 E96.52911
G1 X124.713 Y143.212 E96.59837
G1 X125.293 Y143.203 E96.66797
G1 X125.851 Y143.372 E96.73794
G1 X126.326 Y143.707 E96.80769
G1 X126.674 Y144.169 E96.8771
G1 X126.683 Y144.181 E96.8789
G1 X126.865 Y144.718 E96.94694
G1 X126.875 Y145.302 E97.01703
G1 X126.703 Y145.86 E97.08709
G1 X126.384 Y146.319 E97.15417
G1 X125.916 Y146.676 E97.2248
G1 X125.375 Y146.868 E97.29369
G1 X124.794 Y146.883 E97.36344
G1 X124.243 Y146.723 E97.43229
G1 X123.758 Y146.392 E97.50275
G1 X123.394 Y145.914 E97.57485
G1 X123.208 Y145.385 E97.64214
G1 X123.193 Y144.801 E97.71224
G0 F3600 X123.249 Y144.609
G10
G0 X122.834 Y144.513
G0 X122.849 Y145.389
G0 X123.156 Y146.238
G0 X123.735 Y146.832
G0 X124.939 Y147.229
G0 X126.208 Y147.179
G0 X132.038 Y153.166
G0 X131.716 Y154.501
G11
G0 X132.125 Y154.508
G1 F1800 X132.281 Y153.958 E97.78084
G1 X132.552 Y153.437 E97.85131
G1 X132.912 Y152.983 E97.92084
G1 X133.354 Y152.607 E97.99048
G1 X133.862 Y152.328 E98.06003
G1 X134.408 Y152.151 E98.1289
G1 X135.012 Y152.083 E98.20184
G1 X135.593 Y152.135 E98.27184
G1 X136.12 Y152.291 E98.33779
G1 X136.64 Y152.561 E98.4081
G1 X137.093 Y152.921 E98.47754
G1 X137.485 Y153.384 E98.55034
G1 X137.762 Y153.894 E98.61998
G1 X137.933 Y154.442 E98.68887
G1 X137.994 Y155.02 E98.75861
G1 X137.941 Y155.604 E98.82898
G1 X137.779 Y156.152 E98.89756
G1 X137.507 Y156.667 E98.96745
G1 X137.485 Y156.699 E98.97211
G1 X137.129 Y157.134 E99.03956
G1 X136.712 Y157.48 E99.10458
G1 X136.206 Y157.758 E99.17386
G1 X135.659 Y157.934 E99.24282
G1 X135.078 Y158 E99.31298
G1 X134.5 Y157.952 E99.38258
G1 X133.949 Y157.794 E99.45137
G1 X133.428 Y157.525 E99.52173
G1 X132.974 Y157.164 E99.59133
G1 X132.598 Y156.722 E99.66097
G1 X132.318 Y156.213 E99.73068
G1 X132.143 Y155.666 E99.7996
G1 X132.077 Y155.091 E99.86905
G1 X132.125 Y154.508 E99.93925
G0 F3600 X132.179 Y154.316
G10
G0 X131.785 Y154.2
G0 X132.038 Y153.166
G0 X124.072 Y107.277
G0 X123.199 Y106.24
G0 X122.81 Y105.484
G11
G0 X123.208 Y105.384
G1 F1800 X123.193 Y104.801 E100.00923
G1 X123.358 Y104.243 E100.07906
G1 X123.684 Y103.767 E100.14829
G1 X124.159 Y103.402 E100.22017
G1 X124.713 Y103.212 E100.29045
G1 X125.293 Y103.203 E100.36006
G1 X125.851 Y103.372 E100.43003
G1 X126.326 Y103.707 E100.49978
G1 X126.678 Y104.176 E100.57014
G1 X126.865 Y104.718 E100.63895
G1 X126.874 Y104.778 E100.64623
G1 X126.875 Y105.302 E100.70911
G1 X126.703 Y105.86 E100.77918
G1 X126.37 Y106.334 E100.84869
G1 X125.915 Y106.677 E100.91707
G1 X125.375 Y106.868 E100.9858
G1 X124.794 Y106.883 E101.05554
G1 X124.243 Y106.722 E101.12443
G1 X123.741 Y106.378 E101.19745
G1 X123.393 Y105.912 E101.26725
G1 X123.208 Y105.384 E101.33438
G0 F3600 X123.203 Y105.184
G10
G0 X122.777 Y105.221
G0 X123 Y104.154
G0 X123.795 Y103.217
G0 X124.743 Y102.882
G0 X126.029 Y102.82
G0 X131.749 Y96.351
G0 X131.67 Y95.134
G11
G0 X132.077 Y95.091
G1 F1800 X132.125 Y94.509 E101.40446
G1 X132.281 Y93.958 E101.47318
G1 X132.552 Y93.437 E101.54365
G1 X132.912 Y92.983 E101.61318
G1 X133.354 Y92.607 E101.68282
G1 X133.862 Y92.328 E101.75236
G1 X134.408 Y92.151 E101.82124
G1 X135.012 Y92.083 E101.89418
G1 X135.034 Y92.082 E101.89682
G1 X135.593 Y92.135 E101.9642
G1 X136.12 Y92.291 E102.03016
G1 X136.64 Y92.561 E102.10047
G1 X137.093 Y92.921 E102.1699
G1 X137.485 Y93.384 E102.2427
G1 X137.762 Y93.894 E102.31234
G1 X137.933 Y94.442 E102.38123
G1 X137.994 Y95.02 E102.45098
G1 X137.941 Y95.604 E102.52134
G1 X137.779 Y96.152 E102.58992
G1 X137.507 Y96.667 E102.65981
G1 X137.142 Y97.119 E102.72952
G1 X136.712 Y97.48 E102.7969
G1 X136.206 Y97.758 E102.86618
G1 X135.659 Y97.934 E102.93513
G1 X135.078 Y97.999 E103.00529
G1 X134.5 Y97.952 E103.07488
G1 X133.949 Y97.794 E103.14366
G1 X133.428 Y97.524 E103.21408
G1 X132.974 Y97.164 E103.28361
G1 X132.598 Y96.722 E103.35324
G1 X132.318 Y96.213 E103.42295
G1 X132.143 Y95.666 E103.49187
G1 X132.077 Y95.091 E103.56132
G0 F3600 X132.093 Y94.892
G0 X131.679 Y95.134
;TYPE:WALL-INNER
G1 F1800 X131.727 Y94.473 E103.64085
G1 X131.897 Y93.846 E103.71881
G1 X132.198 Y93.25 E103.79893
G1 X132.6 Y92.733 E103.87752
G1 X133.097 Y92.301 E103.95654
G1 X133.672 Y91.976 E104.0358
G1 X134.287 Y91.77 E104.11363
G1 X134.97 Y91.685 E104.19622
G1 X135.034 Y91.682 E104.20391
G1 X135.632 Y91.737 E104.27597
G1 X136.236 Y91.908 E104.3513
G1 X136.826 Y92.207 E104.43068
G1 X137.344 Y92.609 E104.50936
G1 X137.792 Y93.128 E104.59163
G1 X138.115 Y93.706 E104.67109
G1 X138.316 Y94.326 E104.7493
G1 X138.392 Y94.981 E104.82843
G1 X138.339 Y95.643 E104.90812
G1 X138.162 Y96.268 E104.98607
G1 X137.859 Y96.857 E105.06555
G1 X137.452 Y97.372 E105.14432
G1 X136.967 Y97.788 E105.221
G1 X136.396 Y98.11 E105.29966
G1 X135.78 Y98.316 E105.37761
G1 X135.12 Y98.397 E105.4574
G1 X134.464 Y98.35 E105.53632
G1 X133.837 Y98.178 E105.61434
G1 X133.242 Y97.878 E105.69431
G1 X132.724 Y97.476 E105.77299
G1 X132.292 Y96.979 E105.85201
G1 X131.966 Y96.403 E105.93143
G1 X131.761 Y95.786 E106.00945
G1 X131.679 Y95.134 E106.08831
G10
G0 F3600 X131.67 Y95.134
G0 X131.749 Y96.351
G0 X126.029 Y102.82
G0 X124.71 Y102.854
G0 X123.749 Y103.24
G0 X122.992 Y104.244
G11
G0 X122.793 Y104.805
G1 F1800 X122.976 Y104.123 E106.17304
G1 X123.358 Y103.535 E106.25719
G1 X123.921 Y103.081 E106.34398
G1 X124.59 Y102.831 E106.42968
G1 X125.293 Y102.803 E106.51411
G1 X125.974 Y102.991 E106.59888
G1 X126.408 Y103.271 E106.66086
G1 X126.695 Y103.517 E106.70622
G1 X127.027 Y103.98 E106.77459
G1 X127.245 Y104.594 E106.85277
G1 X127.274 Y104.773 E106.87453
G1 X127.275 Y105.302 E106.93801
G1 X127.083 Y105.984 E107.02304
G1 X126.694 Y106.569 E107.10734
G1 X126.26 Y106.922 E107.17447
G1 X125.988 Y107.085 E107.21252
G1 X125.502 Y107.248 E107.27404
G1 X124.798 Y107.283 E107.35862
G1 X124.124 Y107.104 E107.4423
G1 X123.509 Y106.704 E107.53034
G1 X123.069 Y106.146 E107.61561
G1 X122.828 Y105.51 E107.69723
G1 X122.793 Y104.805 E107.78193
G10
G0 F3600 X122.781 Y104.805
G0 X87.455 Y105.3
G0 X86.776 Y106.397
G0 X85.754 Y107.133
G0 X84.316 Y107.128
G0 X83.211 Y106.295
G0 X82.817 Y105.512
G11
G0 X82.828 Y105.51
G1 F1800 X82.793 Y104.805 E107.86664
G1 X82.976 Y104.123 E107.95137
G1 X83.301 Y103.615 E108.02374
G1 X83.758 Y103.202 E108.09766
G1 X84.094 Y102.991 E108.14527
G1 X84.611 Y102.825 E108.21043
G1 X85.293 Y102.803 E108.29231
G1 X85.974 Y102.991 E108.37709
G1 X86.565 Y103.389 E108.46259
G1 X86.922 Y103.829 E108.53058
G1 X87.082 Y104.097 E108.56804
G1 X87.245 Y104.593 E108.63069
G1 X87.274 Y105.301 E108.71572
G1 X87.082 Y105.984 E108.80086
G1 X86.694 Y106.569 E108.88509
G1 X86.153 Y106.998 E108.96795
G1 X85.505 Y107.247 E109.05125
G1 X84.798 Y107.284 E109.13621
G1 X84.124 Y107.104 E109.21992
G1 X83.527 Y106.719 E109.30517
G1 X83.072 Y106.151 E109.3925
G1 X82.828 Y105.51 E109.4748
G10
G0 F3600 X82.817 Y105.512
G0 X76.353 Y98.324
G0 X75.033 Y98.349
G0 X73.75 Y98.088
G0 X72.694 Y97.38
G0 X72.015 Y96.386
G0 X71.67 Y95.134
G11
G0 X71.679 Y95.134
G1 F1800 X71.727 Y94.472 E109.55445
G1 X71.897 Y93.846 E109.63229
G1 X72.198 Y93.25 E109.71242
G1 X72.6 Y92.733 E109.79101
G1 X73.114 Y92.286 E109.87275
G1 X73.676 Y91.973 E109.94994
G1 X74.287 Y91.77 E110.0272
G1 X74.97 Y91.685 E110.10979
G1 X75.632 Y91.737 E110.18948
G1 X76.236 Y91.908 E110.26481
G1 X76.826 Y92.207 E110.34418
G1 X77.344 Y92.609 E110.42286
G1 X77.792 Y93.128 E110.50514
G1 X78.115 Y93.706 E110.58459
G1 X78.316 Y94.326 E110.6628
G1 X78.392 Y94.981 E110.74193
G1 X78.339 Y95.643 E110.82162
G1 X78.162 Y96.268 E110.89957
G1 X77.859 Y96.857 E110.97906
G1 X77.467 Y97.353 E111.05492
G1 X77.047 Y97.721 E111.12193
G1 X76.396 Y98.109 E111.21287
G1 X75.78 Y98.316 E111.29086
G1 X75.12 Y98.397 E111.37065
G1 X74.464 Y98.35 E111.44957
G1 X73.837 Y98.178 E111.52759
G1 X73.242 Y97.878 E111.60755
G1 X72.724 Y97.476 E111.68624
G1 X72.292 Y96.979 E111.76526
G1 X71.966 Y96.403 E111.84468
G1 X71.761 Y95.786 E111.9227
G1 X71.679 Y95.134 E112.00156
G10
G0 F3600 X71.67 Y95.134
G0 X72.038 Y93.167
G0 X70.205 Y91.82
G0 X70.015 Y90.013
G11
G0 X70.005 Y90.013
G1 F1800 X70.005 Y160.072 E120.40864
G1 X140.063 Y160.072 E128.8156
